priv/static/svgs/icons_new/sport-rowing.svg

<svg width="32" height="32" viewBox="0 0 32 32" fill="none" xmlns="http://www.w3.org/2000/svg">
<path d="M16.371 24.4012C17.4411 24.2835 18.3558 23.6662 18.874 22.7922C19.452 23.7657 20.521 24.4215 21.7486 24.4215C22.9763 24.4215 24.0464 23.7657 24.6232 22.7922C25.2012 23.7657 26.2702 24.4215 27.4978 24.4215M4.5 24.4215C5.72762 24.4215 6.79772 23.7657 7.37459 22.7922C7.95255 23.7657 9.02156 24.4215 10.2492 24.4215C10.6338 24.4215 11.0021 24.3573 11.3454 24.2396M24.7818 17.7716L19.5454 11.0907C18.4851 9.73843 16.6404 9.24846 15.0337 9.89249L6.59022 13.2773C6.0807 13.4838 5.82974 14.0594 6.04594 14.5739C6.25778 15.0746 6.85747 15.2961 7.37025 15.0992L14.5165 12.3541L17.3412 15.7561H16.4394C14.8794 15.7561 13.3823 16.3669 12.2797 17.4528L11.957 17.7705M7.6614 15.0629L12.5828 22.0048M12.5828 22.0048L12.1471 23.6876L12.9619 24.8344C13.3845 25.4303 14.2178 25.5758 14.8229 25.1586C15.428 24.7424 15.5758 23.9219 15.1521 23.326L14.3373 22.1792L12.5828 22.0048ZM8.71085 18.7344H4.5M27.5 18.7344H10.3578M16.1505 6.34394C16.1505 7.63847 15.0848 8.68788 13.7702 8.68788C12.4556 8.68788 11.3899 7.63847 11.3899 6.34394C11.3899 5.04942 12.4556 4 13.7702 4C15.0848 4 16.1505 5.04942 16.1505 6.34394Z" stroke="black" stroke-miterlimit="10"/>
</svg>

<svg width="32" height="32" viewBox="0 0 32 32" fill="none" xmlns="http://www.w3.org/2000/svg">
  <symbol id="item" viewBox="0 0 32 32" stroke-width="1" fill="none">
    <path d="M16.371 24.401a3.332 3.332 0 0 0 2.503-1.609 3.336 3.336 0 0 0 2.875 1.63 3.334 3.334 0 0 0 2.874-1.63 3.336 3.336 0 0 0 2.875 1.63m-22.998 0a3.334 3.334 0 0 0 2.875-1.63 3.336 3.336 0 0 0 2.874 1.63c.385 0 .753-.065 1.096-.182m13.437-6.468-5.237-6.681a3.898 3.898 0 0 0-4.511-1.199L6.59 13.277a.984.984 0 0 0-.544 1.297c.212.5.811.722 1.324.525l7.147-2.745 2.824 3.402h-.902a5.93 5.93 0 0 0-4.16 1.697l-.322.317m-4.296-2.707 4.922 6.942m0 0-.436 1.683.815 1.146a1.349 1.349 0 0 0 1.86.325 1.302 1.302 0 0 0 .33-1.833l-.815-1.147-1.754-.174Zm-3.872-3.27H4.5m23 0H10.358M16.15 6.343c0 1.294-1.066 2.344-2.38 2.344-1.315 0-2.381-1.05-2.381-2.344C11.39 5.049 12.456 4 13.77 4c1.315 0 2.38 1.05 2.38 2.344Z" stroke="currentColor" stroke-miterlimit="10"/>
  </symbol>
</svg>
